group-30.svg

<?xml version="1.0" encoding="UTF-8"?>
<svg width="25px" height="17px" viewBox="0 0 25 17" version="1.1" xmlns="http://www.w3.org/2000/svg" xmlns:xlink="http://www.w3.org/1999/xlink">
    <!-- Generator: sketchtool 51.2 (57519) - http://www.bohemiancoding.com/sketch -->
    <title>2AE44E6A-837A-4522-8134-6C6510273DA0</title>
    <desc>Created with sketchtool.</desc>
    <defs></defs>
    <g id="For-business" stroke="none" stroke-width="1" fill="none" fill-rule="evenodd">
        <g id="For-business-|-Website" transform="translate(-1087.000000, -23.000000)" fill="#00A1E9" fill-rule="nonzero">
            <g id="Nav-bar">
                <g id="btn" transform="translate(1087.000000, 22.000000)">
                    <g id="Group-30" transform="translate(0.000000, 1.000000)">
                        <path d="M20.1413043,0.184782609 L4.25,0.184782609 C2.00484243,0.184782609 0.184782609,2.00484243 0.184782609,4.25 L0.184782609,12.75 C0.184782609,14.9951576 2.00484243,16.8152174 4.25,16.8152174 L20.1413043,16.8152174 C22.3864619,16.8152174 24.2065217,14.9951576 24.2065217,12.75 L24.2065217,4.25 C24.2065217,2.00484243 22.3864619,0.184782609 20.1413043,0.184782609 Z M16.9002174,8.6626087 L9.69369565,12.3582609 C9.63664381,12.38782 9.56833264,12.3856196 9.51330139,12.3524501 C9.45827015,12.3192805 9.42442083,12.2599048 9.42391304,12.1956522 L9.42391304,4.80434783 C9.42442083,4.74009523 9.45827015,4.68071946 9.51330139,4.64754994 C9.56833264,4.61438043 9.63664381,4.61218001 9.69369565,4.64173913 L16.9002174,8.3373913 C16.9619285,8.36900686 17.0007464,8.43250946 17.0007464,8.50184783 C17.0007464,8.5711862 16.9619285,8.63468879 16.9002174,8.66630435 L16.9002174,8.6626087 Z" id="Shape"></path>
                    </g>
                </g>
            </g>
        </g>
    </g>
</svg>

<svg xmlns="http://www.w3.org/2000/svg" width="25" height="17" viewBox="0 0 25 17">
    <g fill="none" fill-rule="evenodd">
        <path fill="#FFF" d="M-1087-23H193v3032h-1280z"/>
        <path fill="#00A1E9" fill-rule="nonzero" d="M20.141.185H4.25A4.065 4.065 0 0 0 .185 4.25v8.5a4.065 4.065 0 0 0 4.065 4.065h15.891a4.065 4.065 0 0 0 4.066-4.065v-8.5A4.065 4.065 0 0 0 20.14.185zm-3.24 8.478l-7.207 3.695a.185.185 0 0 1-.27-.162V4.804a.185.185 0 0 1 .27-.162L16.9 8.337a.185.185 0 0 1 0 .33v-.004z"/>
    </g>
</svg>
